modules/hawcons-filled/icons/icon-16-medal.svg

<?xml version="1.0" encoding="UTF-8" standalone="no"?>
<svg width="32px" height="32px" viewBox="0 0 32 32" version="1.1" xmlns="http://www.w3.org/2000/svg" xmlns:xlink="http://www.w3.org/1999/xlink" xmlns:sketch="http://www.bohemiancoding.com/sketch/ns">
    <!-- Generator: Sketch 3.0.3 (7891) - http://www.bohemiancoding.com/sketch -->
    <title>icon 16 medal</title>
    <desc>Created with Sketch.</desc>
    <defs></defs>
    <g id="Page-1" stroke="none" stroke-width="1" fill="none" fill-rule="evenodd" sketch:type="MSPage">
        <g id="icon-16-medal" sketch:type="MSArtboardGroup" fill="#929292">
            <path d="M19,1 L14,1 L14,15.3735982 C14.790422,15.1307224 15.6299451,15 16.5,15 C17.3700549,15 18.209578,15.1307224 19,15.3735982 L19,1 L19,1 Z M20,1 L24,1 L24,14 L22.7526743,17.7419772 C21.9830698,16.9066845 21.0482219,16.225982 20,15.7517392 L20,1 L20,1 Z M13,1 L9,1 L9,14 L10.2473257,17.7419772 L10.2473257,17.7419772 C11.0169302,16.9066845 11.9517781,16.225982 13,15.7517392 L13,1 L13,1 Z M16.5,31 C20.6421358,31 24,27.6421358 24,23.5 C24,19.3578642 20.6421358,16 16.5,16 C12.3578642,16 9,19.3578642 9,23.5 C9,27.6421358 12.3578642,31 16.5,31 L16.5,31 Z" id="medal" sketch:type="MSShapeGroup"></path>
        </g>
    </g>
</svg>

<svg width="32" height="32" xmlns="http://www.w3.org/2000/svg"><path d="M19 1h-5v14.374A8.498 8.498 0 0 1 16.5 15c.87 0 1.71.13 2.5.374V1zm1 0h4v13l-1.247 3.742A8.523 8.523 0 0 0 20 15.752V1zm-7 0H9v13l1.247 3.742A8.523 8.523 0 0 1 13 15.752V1zm3.5 30a7.5 7.5 0 1 0 0-15 7.5 7.5 0 0 0 0 15z" fill="#929292" fill-rule="evenodd"/></svg>
